public/images/jobs/funded-icon.svg

<svg height="64" viewBox="0 0 59 64" width="59" xmlns="http://www.w3.org/2000/svg"><path d="m57.4634667 6.61973333h-7.8784v-5.55306666c0-.5888-.4778667-1.06666667-1.0666667-1.06666667h-38.5066667c-.58879997 0-1.06666663.47786667-1.06666663 1.06666667v5.55306666h-7.8784c-.5888 0-1.06666667.47786667-1.06666667 1.06666667v13.4883556c0 1.9811555.35342222 3.8855111 1.05102222 5.6590222 2.38791111 6.1013333 6.87431111 10.0302222 11.80728888 10.4184889 3.3479111 5.6149333 8.0775111 9.4257777 13.2629333 10.4981333.0035556.0007111.0064.0021333.0099556.0035556.6791111.1415111 1.3717333.2325333 2.0672.2808888v6.0807112c-.6876444.0369777-1.3681778.096-2.0188444.2040888-5.8680889.9443556-9.9697778 4.4679112-9.9946667 8.5767112-.0007111.0128-.0035556.0241777-.0035556.0369777 0 .4416.2688.8206223.6520889.9827556.1272889.0540444.2680889.0839111.416.0839111.0021334 0 .0042667-.0007111.0071111-.0007111h24.0184889c.0021334 0 .0042667.0007111.0071111.0007111.1479111 0 .288-.0298667.416-.0846222.3832889-.1621334.6520889-.5411556.6520889-.9827556 0-.0128-.0035555-.0241778-.0035555-.0369778-.0248889-4.1088-4.1265778-7.6323555-9.9896889-8.576-.6528-.1088-1.3354667-.1678222-2.0238222-.2048v-6.0807111c.6961777-.0483555 1.3880888-.1386666 2.0672-.2808889.0035555-.0007111.0064-.0021333.0099555-.0035555 5.1847111-1.0723556 9.9150222-4.8832 13.2629333-10.4981333 4.9336889-.3889778 9.4193778-4.3171556 11.8072889-10.4170667.6968889-1.7749333 1.0510223-3.6792889 1.0510223-5.6604445v-13.4876444c-.0014223-.58951111-.4792889-1.06666667-1.0680889-1.06666667zm-54.42702226 19.43466667c-.59946666-1.5253333-.90382222-3.1665778-.90382222-4.8796444v-12.42168893h6.81173334v15.27111113c0 2.9425778.52622222 5.7784889 1.56444444 8.4295111.3285333.8391111.6912 1.6448 1.0723556 2.4291555-3.53848893-.9194666-6.70648893-4.1329777-8.54471116-8.8284444zm37.02968886 35.8115556h-21.6021333c.7018667-2.5671112 3.8727111-4.768 8.0597333-5.4421334 1.7514667-.2901333 3.7269334-.2908444 5.4883556.0007111 4.1820444.6734223 7.3528889 2.8743111 8.0540444 5.4414223zm-8.0981333-16.2019556c-.0014222 0-.0028444 0-.0049778.0007111-1.7649778.3697778-3.6302222.3697778-5.3959111 0-.0014222 0-.0035555 0-.0049778-.0007111-5.8474666-1.2053333-11.1068444-6.4341333-14.0664889-13.9882667-.9400888-2.4028444-1.4172444-4.9770666-1.4172444-7.6522666v-21.89013337h36.3733333v21.89013337c0 2.6752-.4771555 5.2494222-1.4172444 7.6522666-2.9603556 7.5541334-8.2190222 12.7829334-14.0664889 13.9882667zm24.4288-24.4899556c0 1.7130667-.3043556 3.3550223-.9038222 4.8810667-1.8382222 4.6940445-5.0062222 7.9082667-8.5454222 8.8270222.3811555-.7850666.7438222-1.5900444 1.0723555-2.4291555 1.0382222-2.6517334 1.5644445-5.4876445 1.5644445-8.4295111v-15.27040003h6.8117333v12.42097773zm-17.0538667-3.7013333c.6321778.0924445 1.1470223.5269333 1.344 1.1335111.1969778.6065778.0355556 1.2600889-.4216889 1.7052445l-4.2922666 4.1841777 1.0133333 5.9086223c.0832.4849777-.0504889.9784889-.3655111 1.3525333-.3185778.3783111-.7836444.5952-1.2743111.5952-.0007111 0 0 0-.0007111 0-.2666667 0-.5347556-.0661333-.7744-.1927111l-5.3063111-2.7889778-5.3063111 2.7889778c-.6791112.3562667-1.5573334.1820444-2.0494223-.4024889-.3157333-.3740444-.4487111-.8668444-.3655111-1.3525333l1.0133334-5.9079111-4.2929778-4.1848889c-.4572445-.4458667-.6179556-1.0986667-.4209778-1.7059556.1976889-.6065778.7118222-1.0403555 1.3432889-1.1328l5.9335111-.8618667 2.6524444-5.3767111c.2830223-.5724444.8547556-.9272889 1.4926223-.9272889.6378666 0 1.2103111.3548445 1.4926222.9265778l2.6524444 5.3774222zm-5.0353777 5.6675556 3.7880888-3.6935111-5.2352-.7601778c-.5418666-.0789334-1.0097777-.4188445-1.2529777-.9080889l-2.3424-4.7473778-2.3416889 4.7459556c-.2439111.4913777-.7111111.8312889-1.2515556.9102222l-5.2380444.7601778 3.7888 3.6928c.3932444.3832889.5724444.9336889.4792889 1.4734222l-.8945778 5.2145778 4.6826667-2.4618667c.2382222-.1251556.5063111-.1912889.7751111-.1912889s.5368889.0661333.7751111.192l4.6826666 2.4611556-.8945777-5.2145778c-.0931556-.5397333.0860444-1.0901333.4792889-1.4734222z" fill="#fff"/></svg>

<?xml version="1.0" encoding="UTF-8"?>
<svg width="59px" height="64px" viewBox="0 0 59 64" version="1.1" xmlns="http://www.w3.org/2000/svg" xmlns:xlink="http://www.w3.org/1999/xlink">
    <!-- Generator: Sketch 51.3 (57544) - http://www.bohemiancoding.com/sketch -->
    <title>funded-icon</title>
    <desc>Created with Sketch.</desc>
    <defs></defs>
    <g id="Landing-Page" stroke="none" stroke-width="1" fill="none" fill-rule="evenodd">
        <path d="M57.4634667,6.61973333 L49.5850667,6.61973333 L49.5850667,1.06666667 C49.5850667,0.477866667 49.1072,0 48.5184,0 L10.0117333,0 C9.42293333,0 8.94506667,0.477866667 8.94506667,1.06666667 L8.94506667,6.61973333 L1.06666667,6.61973333 C0.477866667,6.61973333 0,7.0976 0,7.6864 L0,21.1747556 C0,23.1559111 0.353422222,25.0602667 1.05102222,26.8337778 C3.43893333,32.9351111 7.92533333,36.864 12.8583111,37.2522667 C16.2062222,42.8672 20.9358222,46.6780444 26.1212444,47.7504 C26.1248,47.7511111 26.1276444,47.7525333 26.1312,47.7539556 C26.8103111,47.8954667 27.5029333,47.9864889 28.1984,48.0348444 L28.1984,54.1155556 C27.5107556,54.1525333 26.8302222,54.2115556 26.1795556,54.3196444 C20.3114667,55.264 16.2097778,58.7875556 16.1848889,62.8963556 C16.1841778,62.9091556 16.1813333,62.9205333 16.1813333,62.9333333 C16.1813333,63.3749333 16.4501333,63.7539556 16.8334222,63.9160889 C16.9607111,63.9701333 17.1015111,64 17.2494222,64 C17.2515556,64 17.2536889,63.9992889 17.2565333,63.9992889 L41.2750222,63.9992889 C41.2771556,63.9992889 41.2792889,64 41.2821333,64 C41.4300444,64 41.5701333,63.9701333 41.6981333,63.9153778 C42.0814222,63.7532444 42.3502222,63.3742222 42.3502222,62.9326222 C42.3502222,62.9198222 42.3466667,62.9084444 42.3466667,62.8956444 C42.3217778,58.7868444 38.2200889,55.2632889 32.3569778,54.3196444 C31.7041778,54.2108444 31.0215111,54.1518222 30.3331556,54.1148444 L30.3331556,48.0341333 C31.0293333,47.9857778 31.7212444,47.8954667 32.4003556,47.7532444 C32.4039111,47.7525333 32.4067556,47.7511111 32.4103111,47.7496889 C37.5950222,46.6773333 42.3253333,42.8664889 45.6732444,37.2515556 C50.6069333,36.8625778 55.0926222,32.9344 57.4805333,26.8344889 C58.1774222,25.0595556 58.5315556,23.1552 58.5315556,21.1740444 L58.5315556,7.6864 C58.5301333,7.09688889 58.0522667,6.61973333 57.4634667,6.61973333 Z M3.03644444,26.0544 C2.43697778,24.5290667 2.13262222,22.8878222 2.13262222,21.1747556 L2.13262222,8.75306667 L8.94435556,8.75306667 L8.94435556,24.0241778 C8.94435556,26.9667556 9.47057778,29.8026667 10.5088,32.4536889 C10.8373333,33.2928 11.2,34.0984889 11.5811556,34.8828444 C8.04266667,33.9633778 4.87466667,30.7498667 3.03644444,26.0544 Z M40.0661333,61.8659556 L18.464,61.8659556 C19.1658667,59.2988444 22.3367111,57.0979556 26.5237333,56.4238222 C28.2752,56.1336889 30.2506667,56.1329778 32.0120889,56.4245333 C36.1941333,57.0979556 39.3649778,59.2988444 40.0661333,61.8659556 Z M31.968,45.664 C31.9665778,45.664 31.9651556,45.664 31.9630222,45.6647111 C30.1980444,46.0344889 28.3328,46.0344889 26.5671111,45.6647111 C26.5656889,45.6647111 26.5635556,45.6647111 26.5621333,45.664 C20.7146667,44.4586667 15.4552889,39.2298667 12.4956444,31.6757333 C11.5555556,29.2728889 11.0784,26.6986667 11.0784,24.0234667 L11.0784,2.13333333 L47.4517333,2.13333333 L47.4517333,24.0234667 C47.4517333,26.6986667 46.9745778,29.2728889 46.0344889,31.6757333 C43.0741333,39.2298667 37.8154667,44.4586667 31.968,45.664 Z M56.3968,21.1740444 C56.3968,22.8871111 56.0924444,24.5290667 55.4929778,26.0551111 C53.6547556,30.7491556 50.4867556,33.9633778 46.9475556,34.8821333 C47.3287111,34.0970667 47.6913778,33.2920889 48.0199111,32.4529778 C49.0581333,29.8012444 49.5843556,26.9653333 49.5843556,24.0234667 L49.5843556,8.75306667 L56.3960889,8.75306667 L56.3960889,21.1740444 L56.3968,21.1740444 Z M39.3429333,17.4727111 C39.9751111,17.5651556 40.4899556,17.9996444 40.6869333,18.6062222 C40.8839111,19.2128 40.7224889,19.8663111 40.2652444,20.3114667 L35.9729778,24.4956444 L36.9863111,30.4042667 C37.0695111,30.8892444 36.9358222,31.3827556 36.6208,31.7568 C36.3022222,32.1351111 35.8371556,32.352 35.3464889,32.352 C35.3457778,32.352 35.3464889,32.352 35.3457778,32.352 C35.0791111,32.352 34.8110222,32.2858667 34.5713778,32.1592889 L29.2650667,29.3703111 L23.9587556,32.1592889 C23.2796444,32.5155556 22.4014222,32.3413333 21.9093333,31.7568 C21.5936,31.3827556 21.4606222,30.8899556 21.5438222,30.4042667 L22.5571556,24.4963556 L18.2641778,20.3114667 C17.8069333,19.8656 17.6462222,19.2128 17.8432,18.6055111 C18.0408889,17.9989333 18.5550222,17.5651556 19.1864889,17.4727111 L25.12,16.6108444 L27.7724444,11.2341333 C28.0554667,10.6616889 28.6272,10.3068444 29.2650667,10.3068444 C29.9029333,10.3068444 30.4753778,10.6616889 30.7576889,11.2334222 L33.4101333,16.6108444 L39.3429333,17.4727111 Z M34.3075556,23.1402667 L38.0956444,19.4467556 L32.8604444,18.6865778 C32.3185778,18.6076444 31.8506667,18.2677333 31.6074667,17.7784889 L29.2650667,13.0311111 L26.9233778,17.7770667 C26.6794667,18.2684444 26.2122667,18.6083556 25.6718222,18.6872889 L20.4337778,19.4474667 L24.2225778,23.1402667 C24.6158222,23.5235556 24.7950222,24.0739556 24.7018667,24.6136889 L23.8072889,29.8282667 L28.4899556,27.3664 C28.7281778,27.2412444 28.9962667,27.1751111 29.2650667,27.1751111 C29.5338667,27.1751111 29.8019556,27.2412444 30.0401778,27.3671111 L34.7228444,29.8282667 L33.8282667,24.6136889 C33.7351111,24.0739556 33.9143111,23.5235556 34.3075556,23.1402667 Z" id="funded-icon" fill="#FFFFFF" fill-rule="nonzero"></path>
    </g>
</svg>
